X: 61
T: REELS: Lad O'Beirne's Set
T: Lad O'Beirne's
C: C: Lad O'Beirne (?) / Trad.; S: Tulla Céilí Band / Kilfenora Céilí Band; Bothy Band / Altan
C: Set Leaders: Anton, Sophie
Z: Anton Zille ed. arr., Oleg Naumov arr.; Josh Kane / leprecawn / slainte at The Session
N: https://thesession.org/members/26966/sets/74251
R: Reel
M: 4/4
L: 1/8
Q: 1/2=100
K: Gmaj
|:"G"DG~G2 G2 BG|"G"AcBG "Cadd9"AGEG|"G"DGGF GABd|"C"egdg "D"edge|
"Em"dB~B2 dBGB|"Cadd9"cE~E2 GEDB,|"G (G/B)"DEGA ~B3c|1 "C"dBAc "D"BGGE:|2 "C"dBAc "D"BGGA||
|:"G"BddB d2 Bd|"G"egdg "Cadd9"edge|"G"dB~B2 dBGB|"C"cE~E2 "D"GEDA|
"Em"Bd~d2 d2 ef|"C"g2 fa gedB|"G/B"DEGA ~B3c|1 "D"dBAc BGGA:|2 "D"dBAc BGGE||
T: Molly Bán
K: Emin
"Em"EBBA B2 AG|"D"FDAD BDAF|"Em"EBBA B2 B^c|"D"dBAc BEED|
"Em"EBBA B2 AG|"D"FDAD BDAF|"Em"EBBA ~B3^c|"D"dBAc BE~E2||
"Em"e2 Be~e2 fe|"D"dBB^c d2 Bd|"Em"e2 Be~e2 fe|"D"dBAc BE~E2
"Em"e2 Be~e2 fe|"D"dBB^c d3e|"C"~f3e defe|"D/B"dBAc BFAF||
T: Ballinamore
K: Edor
"G"G2 BG "A"E2 AG|"D"FDFA dAFA|"G"~G2 BG "A"EFGA|"Bm"BdAF GE~E2|
"G"EGBG "A"EFGE|"D"FDFA dAFA|"G"~G2 BG "A"EFGA|"D/B"BdAF GE~E2||
"Em"eB~B2 efge|"D"fa~a2 bfaf|"Em"eB~B2 "D/F#"efge|"G"fedf "Bm7"efgf|
"C"eB~B2 efge|"D"fedf afdf|"G"eB~B2 "(Em)"eB~B2|"D"A/B/c de "(Bm)"fdAF||

